X:1
T:Amazing Grace
C:Words: John Newton (1725-1807)
L:1/4
M:3/4
I:linebreak $
K:G
V:1 treble 
V:1
 D |"G" G2 B/G/ | B2"G7" A |"C" G E |"G" D2"D7" D |"G" G2 B/G/ | B A |"D7" d3- | d z || B | %10
"G" d3/2 B/ d/B/ | G2 D |"C" E3/2 G/ G/E/ |"G" D2 D |$"Em" G2 B/G/ |"D7" B A |"G" G3- |"G" G z |] %18
